;Fusion 360 CAM 2.0.4860
; Posts processor: MPCNC_Mill_Laser.cps
; Gcode generated: Sunday, December 2, 2018 2:07:32 PM GMT
; Document: cam_testpp v5
; Setup: Setup2
; 
; Ranges table:
; X: Min=-25 Max=25 Size=50
; Y: Min=-25.5 Max=25 Size=50.5
; Z: Min=0 Max=15 Size=15
; 
; Tools table:
; T1 D=0 CR=0 - ZMIN=0 - laser cutter

; *** START begin ***
G90
G21
M84 S0
G92 X0 Y0 Z0
; COMMAND_TOOL_MEASURE
; *** START end ***

; *** SECTION begin ***
;2D Profile1 - Laser/Plasma - Cutting mode: auto
; X Min: -25 - X Max: 25
; Y Min: -25.5 - Y Max: 25
; Z Min: 0 - Z Max: 15
M400
; COMMAND_START_SPINDLE
; COMMAND_SPINDLE_COUNTERCLOCKWISE
; COMMAND_COOLANT_ON
M117 2D Profile1
G0 Z15 F300
G0 X-9.94 Y-10.5 F2500
G0 Z0 F300
; >>> LASER Power ON
M106 S200
; COMMAND_POWER_ON
; MOVEMENT_LEAD_IN
G1 Y-10 F1000
G1 X-9.95
; MOVEMENT_CUTTING
G1 X-10
G1 Y10
G1 X10
G1 Y-10
G1 X-9.95
; MOVEMENT_LEAD_OUT
G1 X-9.96
G1 Y-10.5
; >>> LASER Power OFF
M107
; COMMAND_POWER_OFF
; MOVEMENT_RAPID
G0 Z5 F300
G0 X-9.99 Y-25.5 F2500
G0 Z0 F300
; >>> LASER Power ON
M106 S200
; COMMAND_POWER_ON
; MOVEMENT_LEAD_IN
G1 Y-25 F1000
G1 X-10
; MOVEMENT_CUTTING
G1 X-25
G1 Y25
G1 X25
G1 Y-25
G1 X-10
; MOVEMENT_LEAD_OUT
G1 X-10.01
G1 Y-25.5
; >>> LASER Power OFF
M107
; COMMAND_POWER_OFF
; MOVEMENT_RAPID
G0 Z15 F300
; *** SECTION end ***

; *** STOP begin ***
M400
; COMMAND_COOLANT_OFF
; COMMAND_STOP_SPINDLE
G0 X0 Y0 F2500
M117 Job end
; *** STOP end ***
